Numix-Circle/48x48/apps/crashplan.svg

<svg xmlns="http://www.w3.org/2000/svg" xmlns:xlink="http://www.w3.org/1999/xlink" width="48" height="48">
 <defs>
  <linearGradient id="0">
   <stop stop-color="#72a636"/>
   <stop offset="1" stop-color="#617248"/>
  </linearGradient>
  <linearGradient xlink:href="#0" id="1" gradientUnits="userSpaceOnUse" gradientTransform="translate(-0.0028,-1052.3622)" x1="3" x2="45"/>
  <clipPath>
   <rect width="125" height="105" x="-25" y="-42" fill="#f9f9f9"/>
  </clipPath>
 </defs>
 <rect width="45.999" x="1" y="0.998" rx="23" height="45.999" opacity="0.5" fill="#f9f9f9" fill-rule="evenodd"/>
 <rect transform="matrix(0,1,-1,0,0,0)" width="41.999" x="2.998" y="-45" rx="20.999" height="41.999" fill="url(#1)" fill-rule="evenodd"/>
 <path d="M 23 11 L 11 21 C 10.125841 21.772462 9.7854231 22.441538 10.3125 23 C 10.869796 23.557716 11.53259 23.468837 12 23 L 12 34 C 12 34.494024 12.483881 35 13 35 L 24 35 L 35 35 C 35.516119 35 36 34.494024 36 34 L 36 23 C 36.46741 23.468837 37.130204 23.557716 37.6875 23 C 38.214577 22.441538 37.874159 21.772462 37 21 L 25 11 L 24 11 L 23 11 z M 23.5 22 C 24.14738 22 24.697094 22.420729 24.90625 23 L 26.09375 23 C 26.29759 22.413588 26.844162 22 27.5 22 C 28.14738 22 28.697094 22.420729 28.90625 23 L 30.09375 23 C 30.29759 22.413588 30.844162 22 31.5 22 C 32.305032 22 32.967725 22.633115 33 23.4375 L 33 23.5 C 33 24.155838 32.586412 24.70241 32 24.90625 L 32 26.09375 C 32.559402 26.29471 32.974853 26.81075 33 27.4375 L 33 27.5 C 33 28.155838 32.586412 28.70241 32 28.90625 L 32 30.09375 C 32.559402 30.29471 32.974853 30.81075 33 31.4375 L 33 31.5 C 33 32.328427 32.328427 33 31.5 33 C 30.844162 33 30.29759 32.586412 30.09375 32 L 28.90625 32 C 28.70241 32.586412 28.155838 33 27.5 33 C 26.844162 33 26.29759 32.586412 26.09375 32 L 24.90625 32 C 24.70241 32.586412 24.155838 33 23.5 33 C 22.671573 33 22 32.328427 22 31.5 C 22 30.844162 22.413588 30.29759 23 30.09375 L 23 28.90625 C 22.413588 28.70241 22 28.155838 22 27.5 C 22 26.844162 22.413588 26.29759 23 26.09375 L 23 24.90625 C 22.413588 24.70241 22 24.155838 22 23.5 C 22 22.671573 22.671573 22 23.5 22 z M 24.90625 24 C 24.756052 24.432093 24.432093 24.756052 24 24.90625 L 24 26.09375 C 24.418803 26.244201 24.754531 26.579804 24.90625 27 L 26.09375 27 C 26.243948 26.567907 26.567907 26.243948 27 26.09375 L 27 24.90625 C 26.567907 24.756052 26.243948 24.432093 26.09375 24 L 24.90625 24 z M 28.90625 24 C 28.756052 24.432093 28.432093 24.756052 28 24.90625 L 28 26.09375 C 28.418803 26.244201 28.754531 26.579804 28.90625 27 L 30.09375 27 C 30.243948 26.567907 30.567907 26.243948 31 26.09375 L 31 24.90625 C 30.567907 24.756052 30.243948 24.432093 30.09375 24 L 28.90625 24 z M 24.90625 28 C 24.756052 28.432093 24.432093 28.756052 24 28.90625 L 24 30.09375 C 24.418803 30.244201 24.754531 30.579804 24.90625 31 L 26.09375 31 C 26.243948 30.567907 26.567907 30.243948 27 30.09375 L 27 28.90625 C 26.567907 28.756052 26.243948 28.432093 26.09375 28 L 24.90625 28 z M 28.90625 28 C 28.756052 28.432093 28.432093 28.756052 28 28.90625 L 28 30.09375 C 28.418803 30.244201 28.754531 30.579804 28.90625 31 L 30.09375 31 C 30.243948 30.567907 30.567907 30.243948 31 30.09375 L 31 28.90625 C 30.567907 28.756052 30.243948 28.432093 30.09375 28 L 28.90625 28 z " fill="#f9f9f9"/>
</svg>

<svg viewBox="0 0 48 48"><defs><linearGradient id="1" gradientUnits="userSpaceOnUse" y1="15" x2="0" y2="11" gradientTransform="matrix(15.333333,0,0,11.5,414.99999,-125.5)"><stop/><stop offset="1" stop-opacity="0"/></linearGradient><clipPath id="clipPath-734735521"><g transform="translate(0,-1004.3622)"><path d="m -24 13 c 0 1.105 -0.672 2 -1.5 2 -0.828 0 -1.5 -0.895 -1.5 -2 0 -1.105 0.672 -2 1.5 -2 0.828 0 1.5 0.895 1.5 2 z" transform="matrix(15.333333,0,0,11.5,414.99999,878.8622)" fill="#1890d0"/></g></clipPath><clipPath id="clipPath-745404000"><g transform="translate(0,-1004.3622)"><path d="m -24 13 c 0 1.105 -0.672 2 -1.5 2 -0.828 0 -1.5 -0.895 -1.5 -2 0 -1.105 0.672 -2 1.5 -2 0.828 0 1.5 0.895 1.5 2 z" transform="matrix(15.333333,0,0,11.5,414.99999,878.8622)" fill="#1890d0"/></g></clipPath></defs><g><g transform="translate(0,-1004.3622)"><path d="m 25 1006.36 c -12.703 0 -23 10.298 -23 23 0 6.367 2.601 12.12 6.781 16.281 4.085 3.712 9.514 5.969 15.469 5.969 12.703 0 23 -10.297 23 -23 0 -5.954 -2.256 -11.384 -5.969 -15.469 -4.165 -4.181 -9.914 -6.781 -16.281 -6.781 z m 16.281 6.781 c 3.854 4.113 6.219 9.637 6.219 15.719 0 12.703 -10.297 23 -23 23 -6.081 0 -11.606 -2.364 -15.719 -6.219 4.16 4.144 9.883 6.719 16.219 6.719 12.703 0 23 -10.297 23 -23 0 -6.335 -2.575 -12.06 -6.719 -16.219 z" opacity="0.05"/><path d="m 41.28 1013.14 c 3.712 4.085 5.969 9.514 5.969 15.469 0 12.703 -10.297 23 -23 23 -5.954 0 -11.384 -2.256 -15.469 -5.969 4.113 3.854 9.637 6.219 15.719 6.219 12.703 0 23 -10.297 23 -23 0 -6.081 -2.364 -11.606 -6.219 -15.719 z" opacity="0.1"/><path transform="matrix(15.333333,0,0,11.5,415.24999,879.11222)" d="m -24 13 a 1.5 2 0 1 1 -3 0 1.5 2 0 1 1 3 0 z" opacity="0.2"/></g></g><g><g transform="translate(0,-1004.3622)"><path d="m -24 13 c 0 1.105 -0.672 2 -1.5 2 -0.828 0 -1.5 -0.895 -1.5 -2 0 -1.105 0.672 -2 1.5 -2 0.828 0 1.5 0.895 1.5 2 z" transform="matrix(15.333333,0,0,11.5,414.99999,878.8622)" fill="#709f39"/></g></g><g><path d="m 47 24 c 0 12.703 -10.297 23 -23 23 -12.703 0 -23 -10.297 -23 -23 0 -12.703 10.297 -23 23 -23 12.703 0 23 10.297 23 23 z" opacity="0.15" fill="url(#1)"/></g><g><g clip-path="url(#clipPath-734735521)"><g transform="translate(0,1)"><g opacity="0.1"><!-- color: #709f39 --><g><path d="m 23 11 l -12 10 c -0.875 0.773 -1.215 1.441 -0.688 2 c 0.555 0.559 1.219 0.469 1.688 0 l 0 11 c 0 0.492 0.484 1 1 1 l 22 0 c 0.516 0 1 -0.508 1 -1 l 0 -11 c 0.469 0.469 1.129 0.559 1.688 0 c 0.527 -0.559 0.188 -1.227 -0.688 -2 l -12 -10 m -1.5 11 c 0.648 0 1.195 0.422 1.406 1 l 1.188 0 c 0.203 -0.586 0.75 -1 1.406 -1 c 0.648 0 1.195 0.422 1.406 1 l 1.188 0 c 0.203 -0.586 0.75 -1 1.406 -1 c 0.805 0 1.469 0.633 1.5 1.438 l 0 0.063 c 0 0.656 -0.414 1.203 -1 1.406 l 0 1.188 c 0.559 0.203 0.977 0.719 1 1.344 l 0 0.066 c 0 0.652 -0.414 1.199 -1 1.402 l 0 1.191 c 0.559 0.199 0.977 0.715 1 1.344 l 0 0.063 c 0 0.828 -0.672 1.5 -1.5 1.5 c -0.656 0 -1.203 -0.414 -1.406 -1 l -1.188 0 c -0.203 0.586 -0.75 1 -1.406 1 c -0.656 0 -1.203 -0.414 -1.406 -1 l -1.188 0 c -0.203 0.586 -0.75 1 -1.406 1 c -0.828 0 -1.5 -0.672 -1.5 -1.5 c 0 -0.656 0.414 -1.203 1 -1.406 l 0 -1.188 c -0.586 -0.207 -1 -0.75 -1 -1.406 c 0 -0.656 0.414 -1.203 1 -1.406 l 0 -1.188 c -0.586 -0.207 -1 -0.75 -1 -1.406 c 0 -0.828 0.672 -1.5 1.5 -1.5 m 1.406 1.996 c -0.148 0.434 -0.473 0.758 -0.906 0.906 l 0 1.188 c 0.418 0.148 0.754 0.484 0.906 0.906 l 1.188 0 c 0.148 -0.434 0.473 -0.758 0.906 -0.906 l 0 -1.188 c -0.434 -0.148 -0.758 -0.473 -0.906 -0.906 m 2.813 0 c -0.148 0.434 -0.473 0.758 -0.906 0.906 l 0 1.188 c 0.418 0.148 0.754 0.484 0.906 0.906 l 1.188 0 c 0.148 -0.434 0.473 -0.758 0.906 -0.906 l 0 -1.188 c -0.434 -0.148 -0.758 -0.473 -0.906 -0.906 m -5.188 4 c -0.148 0.434 -0.473 0.758 -0.906 0.906 l 0 1.188 c 0.418 0.148 0.754 0.484 0.906 0.906 l 1.188 0 c 0.148 -0.434 0.473 -0.758 0.906 -0.906 l 0 -1.188 c -0.434 -0.148 -0.758 -0.473 -0.906 -0.906 m 2.813 0 c -0.148 0.434 -0.473 0.758 -0.906 0.906 l 0 1.188 c 0.418 0.148 0.754 0.484 0.906 0.906 l 1.188 0 c 0.148 -0.434 0.473 -0.758 0.906 -0.906 l 0 -1.188 c -0.434 -0.148 -0.758 -0.473 -0.906 -0.906 m -1.188 0" fill="#000" stroke="none" fill-rule="nonzero" fill-opacity="1"/></g></g></g></g></g><g><g clip-path="url(#clipPath-745404000)"><!-- color: #709f39 --><g><path d="m 23 11 l -12 10 c -0.875 0.773 -1.215 1.441 -0.688 2 c 0.555 0.559 1.219 0.469 1.688 0 l 0 11 c 0 0.492 0.484 1 1 1 l 22 0 c 0.516 0 1 -0.508 1 -1 l 0 -11 c 0.469 0.469 1.129 0.559 1.688 0 c 0.527 -0.559 0.188 -1.227 -0.688 -2 l -12 -10 m -1.5 11 c 0.648 0 1.195 0.422 1.406 1 l 1.188 0 c 0.203 -0.586 0.75 -1 1.406 -1 c 0.648 0 1.195 0.422 1.406 1 l 1.188 0 c 0.203 -0.586 0.75 -1 1.406 -1 c 0.805 0 1.469 0.633 1.5 1.438 l 0 0.063 c 0 0.656 -0.414 1.203 -1 1.406 l 0 1.188 c 0.559 0.203 0.977 0.719 1 1.344 l 0 0.066 c 0 0.652 -0.414 1.199 -1 1.402 l 0 1.191 c 0.559 0.199 0.977 0.715 1 1.344 l 0 0.063 c 0 0.828 -0.672 1.5 -1.5 1.5 c -0.656 0 -1.203 -0.414 -1.406 -1 l -1.188 0 c -0.203 0.586 -0.75 1 -1.406 1 c -0.656 0 -1.203 -0.414 -1.406 -1 l -1.188 0 c -0.203 0.586 -0.75 1 -1.406 1 c -0.828 0 -1.5 -0.672 -1.5 -1.5 c 0 -0.656 0.414 -1.203 1 -1.406 l 0 -1.188 c -0.586 -0.207 -1 -0.75 -1 -1.406 c 0 -0.656 0.414 -1.203 1 -1.406 l 0 -1.188 c -0.586 -0.207 -1 -0.75 -1 -1.406 c 0 -0.828 0.672 -1.5 1.5 -1.5 m 1.406 1.996 c -0.148 0.434 -0.473 0.758 -0.906 0.906 l 0 1.188 c 0.418 0.148 0.754 0.484 0.906 0.906 l 1.188 0 c 0.148 -0.434 0.473 -0.758 0.906 -0.906 l 0 -1.188 c -0.434 -0.148 -0.758 -0.473 -0.906 -0.906 m 2.813 0 c -0.148 0.434 -0.473 0.758 -0.906 0.906 l 0 1.188 c 0.418 0.148 0.754 0.484 0.906 0.906 l 1.188 0 c 0.148 -0.434 0.473 -0.758 0.906 -0.906 l 0 -1.188 c -0.434 -0.148 -0.758 -0.473 -0.906 -0.906 m -5.188 4 c -0.148 0.434 -0.473 0.758 -0.906 0.906 l 0 1.188 c 0.418 0.148 0.754 0.484 0.906 0.906 l 1.188 0 c 0.148 -0.434 0.473 -0.758 0.906 -0.906 l 0 -1.188 c -0.434 -0.148 -0.758 -0.473 -0.906 -0.906 m 2.813 0 c -0.148 0.434 -0.473 0.758 -0.906 0.906 l 0 1.188 c 0.418 0.148 0.754 0.484 0.906 0.906 l 1.188 0 c 0.148 -0.434 0.473 -0.758 0.906 -0.906 l 0 -1.188 c -0.434 -0.148 -0.758 -0.473 -0.906 -0.906 m -1.188 0" fill="#f9f9f9" stroke="none" fill-rule="nonzero" fill-opacity="1"/></g></g></g><g><path d="m 40.03 7.531 c 3.712 4.084 5.969 9.514 5.969 15.469 0 12.703 -10.297 23 -23 23 c -5.954 0 -11.384 -2.256 -15.469 -5.969 4.178 4.291 10.01 6.969 16.469 6.969 c 12.703 0 23 -10.298 23 -23 0 -6.462 -2.677 -12.291 -6.969 -16.469 z" opacity="0.1"/></g></svg>
